X:1
T:Voller Wunder, 77.77.77
T:Johann Georg Ebeling, 1666
T:Voller Wunder, 77.77.77
T:Public Domain
C:Johann Georg Ebeling, 1666
Z:Public Domain
%%score 1 ( 2 3 )
L:1/8
M:4/4
K:Bb
V:1 treble 
V:2 bass 
V:3 bass 
V:1
 [DB]2 [DF]2 [EG]2 [DB]2 | [GB]2 [FA]2 [FB]4 | [FA]2 [DB]2 [Cc]2 [DF]2 | [FG]2 [=EG]2 [CF]4 | %4
 [DB]2 [DF]2 [EG]2 [DB]2 | [GB]2 [FA]2 [FB]4 | [FA]2 [DB]2 [Cc]2 [DF]2 | [FG]2 [=EG]2 [CF]4 | %8
 [DF]2 [FA]2 [DB]2 [=EG]2 | [FA]2 [FB]2 [=Ec]4 | [DB]2 [Fc]2 [Fd]2 [DB]2 | [GB]2 [FA]2 [FB]4 |] %12
V:2
 [B,,F,]2 [B,,B,]2 [E,B,]2 [G,B,]2 | [E,E]2 [F,C]2 [B,,D]4 | [F,C]2 [G,B,]2 [=E,G,]2 [D,A,]2 | %3
 [B,,D]2 [C,C]2 [F,A,]4 | [B,,F,]2 [B,,B,]2 [E,B,]2 [G,B,]2 | [E,E]2 [F,C]2 [B,,D]4 | %6
 [F,C]2 [G,B,]2 [=E,G,]2 [D,A,]2 | [B,,D]2 [C,C]2 [F,,A,]4 | [B,,B,]2 [F,C]2 [G,B,]2 [C,C]2 | %9
 [F,C]2 [D,F,]2 [C,G,]4 | G,2 [F,A,]2 [D,B,]2 [G,B,]2 | [E,C]2 [F,C]2 [B,,D]4 |] %12
V:3
 x8 | x8 | x8 | x8 | x8 | x8 | x8 | x8 | x8 | x8 | G,2 x6 | x8 |] %12

